swiss/communes/1370.svg

<?xml version="1.0" encoding="UTF-8" standalone="no"?>
<!-- Created with Inkscape (http://www.inkscape.org/) -->

<svg
   xmlns:dc="http://purl.org/dc/elements/1.1/"
   xmlns:cc="http://creativecommons.org/ns#"
   xmlns:rdf="http://www.w3.org/1999/02/22-rdf-syntax-ns#"
   xmlns:svg="http://www.w3.org/2000/svg"
   xmlns="http://www.w3.org/2000/svg"
   xmlns:sodipodi="http://sodipodi.sourceforge.net/DTD/sodipodi-0.dtd"
   xmlns:inkscape="http://www.inkscape.org/namespaces/inkscape"
   version="1.0"
   width="208.86046"
   height="244.65999"
   id="svg2780"
   inkscape:version="0.92.4 (5da689c313, 2019-01-14)"
   sodipodi:docname="Rothenthurm-blazon.svg">
  <metadata
     id="metadata27">
    <rdf:RDF>
      <cc:Work
         rdf:about="">
        <dc:format>image/svg+xml</dc:format>
        <dc:type
           rdf:resource="http://purl.org/dc/dcmitype/StillImage" />
        <dc:title></dc:title>
      </cc:Work>
    </rdf:RDF>
  </metadata>
  <sodipodi:namedview
     pagecolor="#ffffff"
     bordercolor="#666666"
     borderopacity="1"
     objecttolerance="10"
     gridtolerance="10"
     guidetolerance="10"
     inkscape:pageopacity="0"
     inkscape:pageshadow="2"
     inkscape:window-width="3259"
     inkscape:window-height="1417"
     id="namedview25"
     showgrid="false"
     inkscape:zoom="2.8284271"
     inkscape:cx="2.2355273"
     inkscape:cy="107.04584"
     inkscape:window-x="-8"
     inkscape:window-y="-8"
     inkscape:window-maximized="1"
     inkscape:current-layer="svg2780"
     inkscape:measure-start="104.255,149.787"
     inkscape:measure-end="104.255,126.383"
     showguides="true"
     inkscape:object-paths="true"
     inkscape:snap-intersection-paths="true" />
  <defs
     id="defs2782" />
  <path
     inkscape:connector-curvature="0"
     style="fill:#1b63c6;fill-opacity:1;fill-rule:evenodd;stroke:#000000;stroke-width:1.99999988;stroke-linecap:butt;stroke-miterlimit:4;stroke-dashoffset:0;stroke-opacity:1"
     id="path4212"
     d="m 1,1 3.761095,158.00304 c 2.686489,112.85918 196.651755,112.85918 199.338255,0 L 207.86045,1 Z" />
  <path
     style="opacity:1;fill:#009645;fill-opacity:1;stroke:#000000;stroke-width:1;stroke-miterlimit:4;stroke-dasharray:none;stroke-dashoffset:4.57999992;stroke-opacity:1"
     d="M 15.042455,197.97187 H 193.81799 c -14.20024,25.2418 -46.72051,45.21732 -89.38775,45.67555 -39.688767,-0.12398 -73.905421,-18.34517 -89.387785,-45.67555 z"
     id="path1657"
     inkscape:connector-curvature="0"
     sodipodi:nodetypes="cccc" />
  <path
     style="opacity:1;fill:#cc2918;fill-opacity:1;stroke:#000000;stroke-width:1;stroke-miterlimit:4;stroke-dasharray:none;stroke-dashoffset:4.57999992;stroke-opacity:1"
     d="m 120.27038,113.08652 -101.230371,0 10.798392,-17.495278 90.431979,0 z"
     id="path1665-5"
     inkscape:connector-curvature="0"
     sodipodi:nodetypes="ccccc" />
  <path
     id="path1663-7"
     style="opacity:1;fill:#ffffff;fill-opacity:1;stroke:#000000;stroke-width:1;stroke-miterlimit:4;stroke-dasharray:none;stroke-dashoffset:4.57999992;stroke-opacity:1"
     d="M 180.25,197.97187 V 52.409988 H 150.26019 120.27038 V 197.97186 l 29.98981,0 z"
     inkscape:connector-curvature="0"
     sodipodi:nodetypes="ccccccc" />
  <path
     style="opacity:1;fill:#ffffff;fill-opacity:1;stroke:#000000;stroke-width:1;stroke-miterlimit:4;stroke-dasharray:none;stroke-dashoffset:4.57999992;stroke-opacity:1"
     d="M 26.101562 113.08594 L 26.101562 197.97266 L 47.640625 197.97266 L 47.640625 154.23828 C 47.425422 138.88776 60.29751 128.69531 73.185547 128.69531 C 86.073584 128.69531 98.945672 138.88776 98.730469 154.23828 L 98.730469 197.97266 L 120.26953 197.97266 L 120.26953 113.08594 L 73.185547 113.08594 L 26.101562 113.08594 z "
     id="path1718-0" />
  <path
     id="path1665-9"
     style="opacity:1;fill:#cc2918;fill-opacity:1;stroke:#000000;stroke-width:1;stroke-miterlimit:4;stroke-dasharray:none;stroke-dashoffset:4.57999992;stroke-opacity:1"
     d="M 115.14538,52.409988 150.26019,8.8398784 185.375,52.409988 c -23.40987,0 -46.81975,0 -70.22962,0 z"
     inkscape:connector-curvature="0"
     sodipodi:nodetypes="cccc" />
  <path
     id="path1754-0"
     style="opacity:1;fill:#000000;fill-opacity:1;stroke:#000000;stroke-width:1;stroke-miterlimit:4;stroke-dasharray:none;stroke-dashoffset:4.57999992;stroke-opacity:1"
     d="M 152.5,110.15999 V 96.659988 c -1.49321,0 -2.98641,0 -4.47962,0 v 13.500002 c 1.49321,0 2.98641,0 4.47962,0 z"
     inkscape:connector-curvature="0"
     sodipodi:nodetypes="ccccc" />
  <path
     id="path1754-0-4"
     style="opacity:1;fill:#000000;fill-opacity:1;stroke:#000000;stroke-width:1;stroke-miterlimit:4;stroke-dasharray:none;stroke-dashoffset:4.57999992;stroke-opacity:1"
     d="M 152.5,80.15999 V 66.659988 c -1.49321,0 -2.98641,0 -4.47962,0 V 80.15999 c 1.49321,0 2.98641,0 4.47962,0 z"
     inkscape:connector-curvature="0"
     sodipodi:nodetypes="ccccc" />
  <path
     inkscape:connector-curvature="0"
     style="fill:none;fill-opacity:1;fill-rule:evenodd;stroke:#000000;stroke-width:1.99999988;stroke-linecap:butt;stroke-miterlimit:4;stroke-dashoffset:0;stroke-opacity:1"
     id="path4212-6"
     d="M 1,0.99999834 4.761095,159.00304 c 2.686489,112.85918 196.651755,112.85918 199.338255,0 l 3.7611,-158.00304166 z" />
</svg>

<svg xmlns="http://www.w3.org/2000/svg" version="1.0" width="208.86" height="244.66"><path style="fill:#1b63c6;fill-opacity:1;fill-rule:evenodd;stroke:#000;stroke-width:1.99999988;stroke-linecap:butt;stroke-miterlimit:4;stroke-dashoffset:0;stroke-opacity:1" d="m1 1 3.761 158.003c2.687 112.86 196.652 112.86 199.338 0L207.86 1z"/><path style="opacity:1;fill:#009645;fill-opacity:1;stroke:#000;stroke-width:1;stroke-miterlimit:4;stroke-dasharray:none;stroke-dashoffset:4.57999992;stroke-opacity:1" d="M15.042 197.972h178.776c-14.2 25.242-46.72 45.217-89.388 45.675-39.689-.124-73.905-18.345-89.388-45.675z"/><path style="opacity:1;fill:#cc2918;fill-opacity:1;stroke:#000;stroke-width:1;stroke-miterlimit:4;stroke-dasharray:none;stroke-dashoffset:4.57999992;stroke-opacity:1" d="M120.27 113.087H19.04L29.838 95.59h90.432z"/><path style="opacity:1;fill:#fff;fill-opacity:1;stroke:#000;stroke-width:1;stroke-miterlimit:4;stroke-dasharray:none;stroke-dashoffset:4.57999992;stroke-opacity:1" d="M180.25 197.972V52.41h-59.98v145.562h29.99zM26.102 113.086v84.887H47.64v-43.735c-.216-15.35 12.657-25.543 25.545-25.543 12.888 0 25.76 10.193 25.544 25.543v43.735h21.54v-84.887H26.102z"/><path style="opacity:1;fill:#cc2918;fill-opacity:1;stroke:#000;stroke-width:1;stroke-miterlimit:4;stroke-dasharray:none;stroke-dashoffset:4.57999992;stroke-opacity:1" d="M115.145 52.41 150.26 8.84l35.115 43.57h-70.23z"/><path style="opacity:1;fill:#000;fill-opacity:1;stroke:#000;stroke-width:1;stroke-miterlimit:4;stroke-dasharray:none;stroke-dashoffset:4.57999992;stroke-opacity:1" d="M152.5 110.16v-13.5h-4.48v13.5h4.48zM152.5 80.16v-13.5h-4.48v13.5h4.48z"/><path style="fill:none;fill-opacity:1;fill-rule:evenodd;stroke:#000;stroke-width:1.99999988;stroke-linecap:butt;stroke-miterlimit:4;stroke-dashoffset:0;stroke-opacity:1" d="m1 1 3.761 158.003c2.687 112.86 196.652 112.86 199.338 0L207.86 1z"/></svg>
